X:5723
T:Saddle The Pony
O:england
M:6/8
L:1/8
K:G
D|:GBA G2B|def gdB|GBA G2B|AFD AFD|
GBA G2B|def gfg|edB dBA|BGG G2:|
|:d|efe edB|def g2g|efe edB|dBA A2d|
efe edB|def g2g|edB dBA|BGG G2:|
